symbols/web/sip/materialsymbolsrounded/sip_wght600_40px.svg

<svg xmlns="http://www.w3.org/2000/svg" height="40" width="40"><path d="M20.083 25.083q.542 0 .896-.354t.354-.896v-7.666q0-.542-.375-.896t-.875-.354q-.541 0-.895.354-.355.354-.355.896v7.666q0 .542.375.896t.875.354Zm4.584 0q.458 0 .771-.312.312-.313.312-.813V21.5h4.458q.625 0 1.146-.542.521-.541.521-1.166v-3.167q0-.625-.521-1.167-.521-.541-1.146-.541h-5.416q-.542 0-.896.354t-.354.896v7.791q0 .5.312.813.313.312.813.312Zm1.083-5.791v-2.167h3.917v2.167ZM9.208 25.083h5.542q.625 0 1.146-.541.521-.542.521-1.167v-2.792q0-.625-.521-1.166-.521-.542-1.146-.542h-4.417v-1.75h5q.459 0 .771-.313.313-.312.313-.77 0-.5-.313-.813-.312-.312-.771-.312H9.75q-.625 0-1.146.541-.521.542-.521 1.167v2.792q0 .625.521 1.166.521.542 1.146.542h4.458v1.75h-5q-.458 0-.791.313-.334.312-.334.77 0 .5.334.813.333.312.791.312ZM6.333 34q-1.5 0-2.583-1.083-1.083-1.084-1.083-2.584V9.667q0-1.5 1.083-2.584Q4.833 6 6.333 6h27.334q1.541 0 2.604 1.083 1.062 1.084 1.062 2.584v20.666q0 1.5-1.062 2.584Q35.208 34 33.667 34Zm0-3.667V9.667v20.666Zm0 0h27.334V9.667H6.333v20.666Z"/></svg>

<svg xmlns="http://www.w3.org/2000/svg" height="40" width="40"><path d="M20.083 25.083Q20.625 25.083 20.979 24.729Q21.333 24.375 21.333 23.833V16.167Q21.333 15.625 20.958 15.271Q20.583 14.917 20.083 14.917Q19.542 14.917 19.188 15.271Q18.833 15.625 18.833 16.167V23.833Q18.833 24.375 19.208 24.729Q19.583 25.083 20.083 25.083ZM24.667 25.083Q25.125 25.083 25.438 24.771Q25.75 24.458 25.75 23.958V21.5H30.208Q30.833 21.5 31.354 20.958Q31.875 20.417 31.875 19.792V16.625Q31.875 16 31.354 15.458Q30.833 14.917 30.208 14.917H24.792Q24.25 14.917 23.896 15.271Q23.542 15.625 23.542 16.167V23.958Q23.542 24.458 23.854 24.771Q24.167 25.083 24.667 25.083ZM25.75 19.292V17.125H29.667V19.292ZM9.208 25.083H14.75Q15.375 25.083 15.896 24.542Q16.417 24 16.417 23.375V20.583Q16.417 19.958 15.896 19.417Q15.375 18.875 14.75 18.875H10.333V17.125H15.333Q15.792 17.125 16.104 16.812Q16.417 16.5 16.417 16.042Q16.417 15.542 16.104 15.229Q15.792 14.917 15.333 14.917H9.75Q9.125 14.917 8.604 15.458Q8.083 16 8.083 16.625V19.417Q8.083 20.042 8.604 20.583Q9.125 21.125 9.75 21.125H14.208V22.875H9.208Q8.75 22.875 8.417 23.188Q8.083 23.5 8.083 23.958Q8.083 24.458 8.417 24.771Q8.75 25.083 9.208 25.083ZM6.333 34Q4.833 34 3.75 32.917Q2.667 31.833 2.667 30.333V9.667Q2.667 8.167 3.75 7.083Q4.833 6 6.333 6H33.667Q35.208 6 36.271 7.083Q37.333 8.167 37.333 9.667V30.333Q37.333 31.833 36.271 32.917Q35.208 34 33.667 34ZM6.333 30.333Q6.333 30.333 6.333 30.333Q6.333 30.333 6.333 30.333V9.667Q6.333 9.667 6.333 9.667Q6.333 9.667 6.333 9.667Q6.333 9.667 6.333 9.667Q6.333 9.667 6.333 9.667V30.333Q6.333 30.333 6.333 30.333Q6.333 30.333 6.333 30.333ZM6.333 30.333H33.667Q33.667 30.333 33.667 30.333Q33.667 30.333 33.667 30.333V9.667Q33.667 9.667 33.667 9.667Q33.667 9.667 33.667 9.667H6.333Q6.333 9.667 6.333 9.667Q6.333 9.667 6.333 9.667V30.333Q6.333 30.333 6.333 30.333Q6.333 30.333 6.333 30.333Z"/></svg>
